X: 41
T:Avonmore, The
M:C|
L:1/8
S:The Moving Cloud
R:reel
K:G
BG (3GGG G2 GA|BGBd gded|BG (3GGG GBcB|ADEG ABcA|BG(3GGG G2 GA|BGBd g2 f
g|afge fdec|AGFG ABcA :|
|:Bdd^c ded=c|BGBd gded|Bdd^c dB=cB|ADFG ABcA|Bdd^c ded=c|BGBd g2 fg|afg
e fdec|AGFG ABcA :|
